X:1
T:Our Home Bright and Fair
T:Our Home Bright and Fair
T:William Howard Doane
T:Frances Jane (Fanny) Crosby, 1869
T:Public Domain Courtesy of the Cyber Hymnal™
C:William Howard Doane
Z:Public Domain
Z:Courtesy of the Cyber Hymnal™
%%score ( 1 2 ) ( 3 4 )
L:1/8
Q:1/4=95
M:4/4
K:Eb
V:1 treble 
V:2 treble 
V:3 bass 
V:4 bass 
V:1
 E[DF] | [EG]2 [EG][EG] [DB]2 [DF][DG] | E4 z2 [DF]2 | [EG]2 [DF]E [EB]2 [EG]E | %4
w: 1.~Now the|Sav- or in- vites you to|come; And|fly to the arms of His|
w: 2.~Are you|thirs- ty? Re- mem- ber the|call; O|come, and sal- va- tion re-|
w: 3.~Are you|wea- ry and sigh- ing for|rest? To|Je- sus your ref- uge re-|
 [DF]4 z2 [EG][DA] | [EB]2 [EG][DF] E2 [DF][EG] | (A4 !fermata!c2) [Ec][Ec] | %7
w: love; In His|king- dom of grace there is|room, * And a|
w: ceive, For the|foun- tain is o- pen to|all * Who will|
w: pair; He will|pil- low your head on His|breast, * If you|
 [EB]2 [EG]E [DF]2 [DG][DF] | E4 z2 ||"^Refrain" [GB][GB] | [Ac]2 [Ac]>[Bd] [ce]2 [Bd][Ac] | %11
w: man- sion of glo- ry a-|bove.|||
w: tru- ly re- pent and be-|lieve.|O- ver|Jor- dan a home bright and|
w: seek Him by watch- ing and|prayer.|||
 ([G-B]4 [EG]2) [EG]2 | [DF]2 [DF][EG] [FA]2 [DB][FA] | [EG-]4 [GB]2 [GB][GB] | %14
w: |||
w: fair, * Our|Sav- ior has gone to pre-|pare; * We shall|
w: |||
 [Ac]2 [Ac]>[Bd] [ce]2 [Bd][Ac] | [G-B]4 [EG]2 [EG][B,E] | (F4 !fermata!B2) [EG][DF] | E6 |] %18
w: ||||
w: rest by and by from our|care, In that home|bright * and fair.||
w: ||||
V:2
 E x | x8 | E4 x4 | x3 E x2 E x | x8 | x4 E2 x2 | E6 x2 | x3 E x4 | E4 x2 || x2 | x8 | x8 | x8 | %13
 x8 | x8 | x8 | D6 x2 | (B,2 CC B,2) |] %18
V:3
 [E,G,][E,A,] | [E,B,]2 [E,B,][E,B,] [B,,A,]2 [B,,A,][B,,A,] | [E,G,]4 z2 [B,,B,]2 | %3
 [E,B,]2 [E,A,][E,G,] [E,G,]2 [E,B,][G,B,] | B,4 z2 [E,B,][F,B,] | %5
 [G,B,]2 [B,,B,][B,,A,] [C,G,]2 [B,,B,][E,B,] | (C4 !fermata![A,,A,])[A,,A,] x2 | %7
 [B,,G,]2 [B,,B,][B,,G,] [B,,A,]2 [B,,B,][B,,A,] | [E,G,]4 z2 || [E,E][E,E] | %10
 [A,E]2 [A,E]>[A,D] [A,C]2 [A,D][A,E] | ([E,E]2 [E,E][E,E] [E,B,]2) [E,B,]2 | %12
 [B,,B,]2 [B,,B,][B,,B,] [B,,B,]2 [B,,B,][B,,B,] | [E,B,]6 [E,E][E,E] | %14
 [A,E]2 [A,E]>[A,D] [A,C]2 [A,D][A,E] | ([E,E]2 [E,E][E,E] [E,B,]2) [E,B,][E,G,] | %16
 ([B,,B,]2 [B,,B,][B,,B,] !fermata![B,,F,]2) [B,,B,][B,,A,] | (G,2 A,A, !fermata!G,2) |] %18
V:4
 x2 | x8 | x8 | x8 | B,4 x4 | x8 | A,,6 A,2 | x8 | x6 || x2 | x8 | x8 | x8 | x8 | x8 | x8 | x8 | %17
 E,6 |] %18

